svgs/findroid.svg

<svg xmlns="http://www.w3.org/2000/svg" viewBox="0 0 192 192"><path fill="none" stroke="#000" stroke-width="12" d="M96.005 16.001c-21.176 0-89.32 123.568-78.936 144.44 10.384 20.864 147.601 20.624 157.881 0 10.28-20.632-57.761-144.44-78.953-144.44Zm51.744 126.352c-6.736 13.52-96.64 13.68-103.456 0-6.8-13.68 37.856-94.656 51.712-94.656 13.856 0 58.48 81.112 51.744 94.656Z"/><path fill="none" stroke="#000" stroke-width="12" d="M64.431 122.178c2.591-11.83 12.749-21.118 25.596-23.346 3.261-.566 8.68-.566 11.941 0 12.846 2.228 23.005 11.516 25.595 23.346.708 3.23-2.043 5.953-5.357 5.953H69.789c-3.314 0-6.065-2.723-5.358-5.953Z"/><path fill="none" stroke="#000" stroke-linecap="round" stroke-width="8" d="m75.768 92.68 5.151 9.109m35.3-9.113-5.151 9.109"/></svg>

<svg
    xmlns="http://www.w3.org/2000/svg"
    viewBox="0 0 192 192"
    id="vector">
    <path
        id="path"
        d="M 96.005 16.001 C 74.829 16.001 6.685 139.569 17.069 160.441 C 27.453 181.305 164.67 181.065 174.95 160.441 C 185.23 139.809 117.189 16.001 95.997 16.001 Z M 147.749 142.353 C 141.013 155.873 51.109 156.033 44.293 142.353 C 37.493 128.673 82.149 47.697 96.005 47.697 C 109.861 47.697 154.485 128.809 147.749 142.353 Z"
        fill="none"
        stroke="#000000"
        stroke-width="12"/>
    <path
        id="path_1"
        d="M 64.431 122.178 C 67.022 110.348 77.18 101.06 90.027 98.832 C 93.288 98.266 98.707 98.266 101.968 98.832 C 114.814 101.06 124.973 110.348 127.563 122.178 C 128.271 125.408 125.52 128.131 122.206 128.131 L 69.789 128.131 C 66.475 128.131 63.724 125.408 64.431 122.178 Z"
        fill="none"
        stroke="#000000"
        stroke-width="12"/>
    <path
        id="path_2"
        d="M 75.768 92.68 L 80.919 101.789 M 116.219 92.676 L 111.068 101.785"
        fill="none"
        stroke="#000000"
        stroke-width="8"
        stroke-linecap="round"/>
</svg>
